!!!!SEGMENT: pl-sa--l-1636--098_anonim-o-maria-cna-dziewica.krn
!!!id: 17xx:805
!!!COM: Anonim
!!!OTL: O Maria cna Dziewica
!!!PDT:
!!!SMS-siglum: PL-SA
!!!SMS-shelfmark: L 1636
!!!NIFC-rismID: 1001087453
!!!URL-scan: http://repozytorium.nifc.pl/skany/pl-sa-nut--l1636
!!!ONB-nifc: 45v, skan 0041, s. 1-4
!!!SMS-variant:
!!!SMS-altvar:
**kern	**kern
*part2	*part1
*staff2	*staff1
*I'keyb	*
*clefF4	*clefC1
*k[f#]	*k[f#]
*G:	*G:
*M2/2	*M2/2
*met(c|)	*met(c|)
=1	=1
*	*^
*	*	*^
*2\right	*2\right	*2\right	*2\right
!	!LO:TX:b:i:t=O Maria cna Dziewica	!	!
!LO:TX:a:t=P:problem:2\ 4\ 8\ 16\ right:global	!LO:TX:a:t=P:problem:2\ 4\ 8\ 16\ right:global	!	!
4G\	2g/	4d\	2.ryy
4E\	.	4e\	.
4C/	2a/	4g\	.
4D/	.	4f#/	8d\L
.	.	.	8c\J
*	*	*v	*v
=2	=2	=2
4GG/	4.g/	2d 2B/
4BB/	.	.
.	8f#/	.
2C/	2e 2c/	2ryy
*	*v	*v
=3	=3
2C/	1d 1B
2BB/	.
=4	=4
*	*^
8C/L	4e/	4c\
8AA/	.	.
8D/	4f#X/	8d\L
8DD/J	.	8c\J
2G/ 2D 2BB 2GG/	2g 2d 2B/	2ryy
*	*v	*v
=5	=5
*	*^
2GG/	4.b/	2g\
.	8cc/	.
8GG/L	2dd 2b/	2g\
8AA/J	.	.
4BB/	.	.
*	*v	*v
=6	=6
8C/L	2ee 2cc 2g/
8D/	.
8E/	.
8F#/J	.
8G\L	2dd 2b 2g/
8A\	.
8B\	.
8G\J	.
!!LO:LB:g=original
=7	=7
8A\L	2cc/ 2a/
8G\	.
8F#\	.
8D\J	.
!LO:TX:t=P:problem:mixed beam	!
8E\L	2b/ 2g/
8F#\	.
8G\	.
8BB/J	.
=8	=8
*	*^
*	*	*^
8C/L	2a/	4g\	4ryy
8AA/J	.	.	.
8D/L	.	4f#/	8d\L
8DD/J	.	.	8c\J
2GG/	2g 2d 2B/	2ryy	2ryy
*	*	*v	*v
*	*v	*v
=9	=9
*	*^
2C/	2e/	2c\
4C/	4e/	4c\
4BB/	4d/	4d\
*	*v	*v
=10	=10
*	*^
4C/	8e/L	2.ryy
.	8f#/	.
4AA/	8g/	.
.	8a/J	.
4D/	8f#X/L	.
.	8e/J	.
4DD/	4f#/	8d\L
.	.	8c\J
*	*v	*v
=11	=11
1G 1D 1GG	1g 1d 1B
=12	=12
*	*^
4G\	2b/	4g\
4E\	.	4g#X\
4A\	4cc/	2a\
4F#\	4dd/	.
*	*v	*v
!!LO:LB:g=original
=13	=13
*	*^
8GG/L	2b 2g/	2ryy
8AA/	.	.
8BB/	.	.
8C/J	.	.
!	!LO:TX:a:t=P:problem:dziura	!
8D\L	2a/yy	2f#\
8E\	.	.
8F#\	.	.
8D\J	.	.
=14	=14	=14
4.G\	4.b/	4.g\
8F#\	8a/	8a\
4E\	8b/L	4g\
.	8cc#X/J	.
!LO:TX:t=P:problem:mixed beam	!	!
8D/L	4dd/	4f#\
8F#X\J	.	.
=15	=15	=15
*	*	*^
!LO:TX:t=P:problem:mixed beam	!	!	!
8G\L	2ee/	4dd\	4ryy
8E\	.	.	.
8A\	.	4cc/	8a\L
8AA/J	.	.	8g\J
2D/	2dd 2a 2f#/	2ryy	2ryy
*	*	*v	*v
*	*v	*v
=16	=16
*	*^
8G\L	2b/	4g\
8F#\	.	.
8E\	.	4g#X\
8G#X\J	.	.
8A\L	4cc/	2a\
8G#\	.	.
8F#\	4dd/	.
8D\J	.	.
*	*v	*v
=17	=17
!LO:TX:t=P:problem:mixed beam	!
8G\L	2b 2g/
16GG/L	.
16AA/J	.
8BB/	.
!LO:SIC:custos C:v	!LO:SIC:custos f a:v
!!LO:LB:g=original
8C/J	.
8D\L	2a 2f#/
8E\	.
8F#\	.
8D\J	.
=18	=18
*	*^
8G\L	4.b/	4.g\
8A\	.	.
8G\	.	.
8F#\J	8a/	8a\
8G\L	8b/L	4g\
8E\	8cc#X/J	.
8D\	4dd 4a/	4f#\
8F#\J	.	.
=19	=19	=19
*	*	*^
!LO:TX:t=P:problem:mixed beam	!	!	!
8G\L	2ee/	4dd\	4ryy
8E\	.	.	.
8A\	.	4cc/	8a\L
8AA/J	.	.	8g\J
2D/	2dd 2a 2f#/	2ryy	2ryy
*	*	*v	*v
*	*v	*v
=20	=20
*	*^
16CC/LL	2e/ 2c/	2ryy
16C/	.	.
16BB/	.	.
16AA/	.	.
16GG/	.	.
16FF#/	.	.
16EE/	.	.
16DD/JJ	.	.
4C/	4e/	4c\
4BB/	4d/	4d\
*	*v	*v
=21	=21
*	*^
4C/	8e/L	2.ryy
.	8f#/	.
4AA/	8g/	.
.	8a/J	.
!	!LO:N:vis=8.	!
8D/L	(>8f#t>/L	.
8C/J	8e/J)	.
8D/L	4f#/	8d\L
8DD/J	.	8c\J
*	*v	*v
=22	=22
1G 1D 1BB 1GG	1g 1d 1B
!LO:TX:a:t=P:problem:utwór kończy się kreską z obustronną repetycją	!
==	==
*-	*-
!!!system-decoration: [(s1,s2)]
!!!RDF**kern: > = above
!!!RDF**kern: < = below
!!!ENC: Marta Chmielewska
!!!END: 2020-06-13
!!!EED: Mateusz Mrugas
!!!EST: 2020-12-09
